X: 11404
T: East Clare, The
R: reel
M: 4/4
K: Gmajor
|:D2FA d2cA|GEE2 EFGB|Add/d/^c d=cAB|c/B/AGE EDDC|
DEFA d2cA|GEE2 EFGB|Add/d/^cd2 AB|1 cAGE EDDC:|2 cAGE ED~D2||
|:aged c2cd|edcd egg2|aged cded|cAGE EDD2|
edeg aged|c3d cAGE|=F2F/F/F FGAB|1 c/B/AGE EDD2:|2 c/B/AGE EDDC||

